static/img/social_icons/goodfirms.svg

<svg width="136" height="52" viewBox="0 0 136 52" fill="none" xmlns="http://www.w3.org/2000/svg">
<path d="M22.8022 20.6302C22.8022 20.6302 20.7911 20.4291 20.7911 22.1989V30.1229H33.9844V32.4961C33.9844 32.4961 34.0246 33.6626 32.7777 33.6626H20.7911V43.9598H35.1911C35.1911 43.9598 43.9196 42.6324 44 33.6626V20.6302H22.8022ZM43.5978 8H17.6134C8.20112 10.2123 8 17.9352 8 17.9352V44H17.9754V20.2682C17.9754 18.257 19.9866 17.895 19.9866 17.895H43.5575L43.5978 8Z" fill="#E9E8EB"/>
<g clip-path="url(#clip0_72_2276)">
<path d="M57.4953 22.8933L53.242 23.51L53.1667 23.5253C53.0526 23.5556 52.9487 23.6156 52.8654 23.6992C52.7821 23.7828 52.7225 23.887 52.6927 24.0011C52.6629 24.1153 52.6639 24.2353 52.6956 24.349C52.7273 24.4626 52.7887 24.5658 52.8733 24.648L55.9547 27.6473L55.228 31.884L55.2193 31.9573C55.2123 32.0753 55.2368 32.193 55.2903 32.2983C55.3438 32.4037 55.4243 32.493 55.5236 32.557C55.6229 32.621 55.7374 32.6575 55.8554 32.6627C55.9735 32.6679 56.0908 32.6417 56.1953 32.5867L59.9993 30.5867L63.7947 32.5867L63.8613 32.6173C63.9714 32.6607 64.091 32.674 64.2078 32.6558C64.3247 32.6377 64.4347 32.5888 64.5264 32.5142C64.6181 32.4395 64.6884 32.3418 64.7299 32.2311C64.7714 32.1203 64.7827 32.0006 64.7627 31.884L64.0353 27.6473L67.118 24.6473L67.17 24.5907C67.2443 24.4992 67.293 24.3896 67.3111 24.2732C67.3293 24.1568 67.3163 24.0376 67.2734 23.9278C67.2305 23.818 67.1593 23.7216 67.067 23.6483C66.9747 23.5751 66.8646 23.5276 66.748 23.5107L62.4947 22.8933L60.5933 19.04C60.5383 18.9284 60.4531 18.8343 60.3475 18.7686C60.2418 18.7029 60.1198 18.668 59.9953 18.668C59.8709 18.668 59.7489 18.7029 59.6432 18.7686C59.5375 18.8343 59.4523 18.9284 59.3973 19.04L57.4953 22.8933Z" fill="#E8E7EA"/>
</g>
<g clip-path="url(#clip1_72_2276)">
<path d="M74.4953 22.8933L70.242 23.51L70.1667 23.5253C70.0526 23.5556 69.9487 23.6156 69.8654 23.6992C69.7821 23.7828 69.7225 23.887 69.6927 24.0011C69.6629 24.1153 69.6639 24.2353 69.6956 24.349C69.7273 24.4626 69.7887 24.5658 69.8733 24.648L72.9547 27.6473L72.228 31.884L72.2193 31.9573C72.2123 32.0753 72.2368 32.193 72.2903 32.2983C72.3438 32.4037 72.4243 32.493 72.5236 32.557C72.6229 32.621 72.7374 32.6575 72.8554 32.6627C72.9735 32.6679 73.0908 32.6417 73.1953 32.5867L76.9993 30.5867L80.7947 32.5867L80.8613 32.6173C80.9714 32.6607 81.091 32.674 81.2078 32.6558C81.3247 32.6377 81.4346 32.5888 81.5264 32.5142C81.6181 32.4395 81.6884 32.3418 81.7299 32.2311C81.7714 32.1203 81.7827 32.0006 81.7627 31.884L81.0353 27.6473L84.118 24.6473L84.17 24.5907C84.2443 24.4992 84.293 24.3896 84.3111 24.2732C84.3293 24.1568 84.3163 24.0376 84.2734 23.9278C84.2305 23.818 84.1593 23.7216 84.067 23.6483C83.9747 23.5751 83.8646 23.5276 83.748 23.5107L79.4947 22.8933L77.5933 19.04C77.5383 18.9284 77.4531 18.8343 77.3475 18.7686C77.2418 18.7029 77.1198 18.668 76.9953 18.668C76.8709 18.668 76.7489 18.7029 76.6432 18.7686C76.5375 18.8343 76.4523 18.9284 76.3973 19.04L74.4953 22.8933Z" fill="#E8E7EA"/>
</g>
<path d="M91.4953 22.8934L87.242 23.51L87.1666 23.5254C87.0526 23.5556 86.9486 23.6156 86.8654 23.6992C86.7821 23.7828 86.7225 23.887 86.6927 24.0012C86.6628 24.1153 86.6639 24.2354 86.6956 24.349C86.7273 24.4626 86.7886 24.5658 86.8733 24.648L89.9546 27.6474L89.228 31.884L89.2193 31.9574C89.2123 32.0753 89.2368 32.193 89.2903 32.2984C89.3437 32.4037 89.4242 32.493 89.5235 32.557C89.6228 32.6211 89.7374 32.6576 89.8554 32.6628C89.9734 32.668 90.0907 32.6417 90.1953 32.5867L93.9993 30.5867L97.7946 32.5867L97.8613 32.6174C97.9713 32.6607 98.0909 32.674 98.2078 32.6559C98.3247 32.6377 98.4346 32.5888 98.5264 32.5142C98.6181 32.4396 98.6883 32.3419 98.7299 32.2311C98.7714 32.1204 98.7827 32.0006 98.7626 31.884L98.0353 27.6474L101.118 24.6474L101.17 24.5907C101.244 24.4992 101.293 24.3897 101.311 24.2732C101.329 24.1568 101.316 24.0376 101.273 23.9278C101.23 23.8181 101.159 23.7216 101.067 23.6484C100.975 23.5751 100.865 23.5276 100.748 23.5107L96.4946 22.8934L94.5933 19.04C94.5383 18.9284 94.4531 18.8344 94.3474 18.7686C94.2417 18.7029 94.1198 18.668 93.9953 18.668C93.8708 18.668 93.7489 18.7029 93.6432 18.7686C93.5375 18.8344 93.4523 18.9284 93.3973 19.04L91.4953 22.8934Z" fill="#E8E7EA"/>
<g clip-path="url(#clip2_72_2276)">
<path d="M108.495 22.8933L104.242 23.51L104.167 23.5253C104.053 23.5556 103.949 23.6156 103.865 23.6992C103.782 23.7828 103.723 23.887 103.693 24.0011C103.663 24.1153 103.664 24.2353 103.696 24.349C103.727 24.4626 103.789 24.5658 103.873 24.648L106.955 27.6473L106.228 31.884L106.219 31.9573C106.212 32.0753 106.237 32.193 106.29 32.2983C106.344 32.4037 106.424 32.493 106.524 32.557C106.623 32.621 106.737 32.6575 106.855 32.6627C106.973 32.6679 107.091 32.6417 107.195 32.5867L110.999 30.5867L114.795 32.5867L114.861 32.6173C114.971 32.6607 115.091 32.674 115.208 32.6558C115.325 32.6377 115.435 32.5888 115.526 32.5142C115.618 32.4395 115.688 32.3418 115.73 32.2311C115.771 32.1203 115.783 32.0006 115.763 31.884L115.035 27.6473L118.118 24.6473L118.17 24.5907C118.244 24.4992 118.293 24.3896 118.311 24.2732C118.329 24.1568 118.316 24.0376 118.273 23.9278C118.23 23.818 118.159 23.7216 118.067 23.6483C117.975 23.5751 117.865 23.5276 117.748 23.5107L113.495 22.8933L111.593 19.04C111.538 18.9284 111.453 18.8343 111.347 18.7686C111.242 18.7029 111.12 18.668 110.995 18.668C110.871 18.668 110.749 18.7029 110.643 18.7686C110.538 18.8343 110.452 18.9284 110.397 19.04L108.495 22.8933Z" fill="#E8E7EA"/>
</g>
<g clip-path="url(#clip3_72_2276)">
<path d="M120.889 25.4578C120.724 25.3347 120.601 25.1631 120.538 24.9668C120.476 24.7706 120.476 24.5597 120.539 24.3637C120.603 24.1677 120.725 23.9963 120.891 23.8737C121.057 23.7511 121.256 23.6834 121.462 23.68L125.462 23.5289C125.482 23.5275 125.501 23.5205 125.517 23.5087C125.532 23.4969 125.544 23.4807 125.551 23.4622L126.933 19.7289C127.003 19.5389 127.129 19.3749 127.295 19.2591C127.46 19.1432 127.658 19.081 127.86 19.081C128.062 19.081 128.26 19.1432 128.425 19.2591C128.591 19.3749 128.717 19.5389 128.787 19.7289L130.164 23.4756C130.171 23.4941 130.183 23.5102 130.199 23.522C130.215 23.5338 130.234 23.5409 130.253 23.5422L134.253 23.6933C134.459 23.6967 134.659 23.7644 134.825 23.887C134.99 24.0096 135.113 24.181 135.176 24.377C135.239 24.5731 135.24 24.784 135.177 24.9802C135.114 25.1764 134.992 25.3481 134.827 25.4711L131.689 27.9378C131.673 27.9497 131.661 27.9664 131.654 27.9855C131.648 28.0046 131.648 28.0252 131.653 28.0444L132.733 31.8711C132.771 32.0169 132.775 32.1695 132.745 32.3171C132.715 32.4648 132.652 32.6037 132.56 32.7232C132.469 32.8428 132.351 32.9398 132.216 33.0071C132.081 33.0743 131.933 33.1099 131.782 33.1111C131.586 33.1109 131.394 33.0521 131.231 32.9422L127.916 30.72C127.899 30.7087 127.88 30.7027 127.86 30.7027C127.84 30.7027 127.821 30.7087 127.804 30.72L124.489 32.9422C124.321 33.056 124.122 33.1154 123.92 33.1122C123.717 33.1091 123.52 33.0436 123.356 32.9246C123.192 32.8056 123.068 32.6389 123.002 32.4472C122.936 32.2556 122.931 32.0482 122.987 31.8533L124.076 28.0133C124.081 27.994 124.08 27.9736 124.074 27.9547C124.067 27.9357 124.056 27.919 124.04 27.9067L120.889 25.4578ZM127.853 29.8311C128.05 29.831 128.242 29.8899 128.404 30L131.724 32.2222C131.741 32.235 131.762 32.242 131.783 32.2421C131.804 32.2423 131.825 32.2356 131.842 32.2231C131.859 32.2106 131.871 32.193 131.877 32.1728C131.883 32.1526 131.883 32.131 131.876 32.1111L130.787 28.2711C130.731 28.0845 130.732 27.8855 130.79 27.6996C130.848 27.5136 130.96 27.349 131.111 27.2267L134.267 24.76C134.284 24.748 134.297 24.7308 134.303 24.7109C134.31 24.6911 134.31 24.6697 134.303 24.6498C134.297 24.6299 134.284 24.6126 134.267 24.6004C134.25 24.5883 134.23 24.5819 134.209 24.5822L130.209 24.4311C130.015 24.4205 129.828 24.3529 129.672 24.2367C129.517 24.1204 129.399 23.9608 129.333 23.7778L127.956 20.0311C127.95 20.0108 127.938 19.9929 127.921 19.9807C127.904 19.9685 127.883 19.9627 127.862 19.9644L127.853 29.8311Z" fill="#E9E8ED"/>
</g>
<defs>
<clipPath id="clip0_72_2276">
<rect width="16" height="16" fill="white" transform="translate(52 18)"/>
</clipPath>
<clipPath id="clip1_72_2276">
<rect width="16" height="16" fill="white" transform="translate(69 18)"/>
</clipPath>
<clipPath id="clip2_72_2276">
<rect width="16" height="16" fill="white" transform="translate(103 18)"/>
</clipPath>
<clipPath id="clip3_72_2276">
<rect width="16" height="16" fill="white" transform="matrix(-1 0 0 1 136 18)"/>
</clipPath>
</defs>
</svg>

<svg width="136" height="52" fill="none" xmlns="http://www.w3.org/2000/svg"><path d="M22.802 20.63s-2.01-.2-2.01 1.569v7.924h13.192v2.373s.04 1.167-1.206 1.167H20.79V43.96h14.4S43.92 42.632 44 33.663V20.63H22.802ZM43.598 8H17.613C8.201 10.212 8 17.935 8 17.935V44h9.975V20.268c0-2.011 2.012-2.373 2.012-2.373h23.57L43.597 8Z" fill="#E9E8EB"/><g clip-path="url(#a)"><path d="m57.495 22.893-4.253.617-.075.015a.667.667 0 0 0-.294 1.123l3.082 3-.727 4.236-.009.073a.666.666 0 0 0 .976.63l3.804-2 3.796 2 .066.03a.665.665 0 0 0 .902-.733l-.728-4.237 3.083-3 .052-.056a.666.666 0 0 0-.422-1.08l-4.253-.618-1.902-3.853a.667.667 0 0 0-1.196 0l-1.902 3.853Z" fill="#E8E7EA"/></g><g clip-path="url(#b)"><path d="m74.495 22.893-4.253.617-.075.015a.667.667 0 0 0-.294 1.123l3.082 3-.727 4.236-.009.073a.666.666 0 0 0 .976.63l3.804-2 3.796 2 .066.03a.665.665 0 0 0 .902-.733l-.728-4.237 3.083-3 .052-.056a.666.666 0 0 0-.422-1.08l-4.253-.618-1.902-3.853a.667.667 0 0 0-1.196 0l-1.902 3.853Z" fill="#E8E7EA"/></g><path d="m91.495 22.893-4.253.617-.075.015a.665.665 0 0 0-.294 1.123l3.082 3-.727 4.236-.009.073a.666.666 0 0 0 .976.63l3.804-2 3.796 2 .066.03a.667.667 0 0 0 .902-.733l-.728-4.237 3.083-3 .052-.056a.667.667 0 0 0-.422-1.08l-4.253-.618-1.902-3.853a.667.667 0 0 0-1.196 0l-1.902 3.853Z" fill="#E8E7EA"/><g clip-path="url(#c)"><path d="m108.495 22.893-4.253.617-.075.015a.67.67 0 0 0-.294 1.123l3.082 3-.727 4.236-.009.073a.67.67 0 0 0 .305.6.663.663 0 0 0 .671.03l3.804-2 3.796 2 .066.03a.667.667 0 0 0 .902-.733l-.728-4.237 3.083-3 .052-.056a.668.668 0 0 0-.422-1.08l-4.253-.618-1.902-3.853a.665.665 0 0 0-.95-.271.672.672 0 0 0-.246.271l-1.902 3.853Z" fill="#E8E7EA"/></g><g clip-path="url(#d)"><path d="M120.889 25.458a.99.99 0 0 1-.35-1.094.99.99 0 0 1 .923-.684l4-.151a.105.105 0 0 0 .055-.02.108.108 0 0 0 .034-.047l1.382-3.733a.99.99 0 0 1 1.492-.47.99.99 0 0 1 .362.47l1.377 3.747a.102.102 0 0 0 .089.066l4 .151a.99.99 0 0 1 .923.684.986.986 0 0 1-.349 1.094l-3.138 2.467a.103.103 0 0 0-.035.047.107.107 0 0 0-.001.06l1.08 3.826a.988.988 0 0 1-.517 1.136.99.99 0 0 1-.434.104.988.988 0 0 1-.551-.169l-3.315-2.222a.1.1 0 0 0-.112 0l-3.315 2.222a.988.988 0 0 1-1.502-1.089l1.089-3.84a.106.106 0 0 0-.002-.058.105.105 0 0 0-.034-.048l-3.151-2.45Zm6.964 4.373a.98.98 0 0 1 .551.169l3.32 2.222a.1.1 0 0 0 .118.001.1.1 0 0 0 .034-.112l-1.089-3.84a.976.976 0 0 1 .324-1.044l3.156-2.467a.094.094 0 0 0 .036-.05.092.092 0 0 0 0-.06.097.097 0 0 0-.094-.068l-4-.15a.99.99 0 0 1-.876-.654l-1.377-3.747a.094.094 0 0 0-.035-.05.09.09 0 0 0-.059-.017l-.009 9.867Z" fill="#E9E8ED"/></g><defs><clipPath id="a"><path fill="#fff" transform="translate(52 18)" d="M0 0h16v16H0z"/></clipPath><clipPath id="b"><path fill="#fff" transform="translate(69 18)" d="M0 0h16v16H0z"/></clipPath><clipPath id="c"><path fill="#fff" transform="translate(103 18)" d="M0 0h16v16H0z"/></clipPath><clipPath id="d"><path fill="#fff" transform="matrix(-1 0 0 1 136 18)" d="M0 0h16v16H0z"/></clipPath></defs></svg>
